packages/icons/web/v2/pluxee_32.svg

<svg width="32" height="24" viewBox="0 0 32 24" fill="none" xmlns="http://www.w3.org/2000/svg">
<g clip-path="url(#clip0_12968_92)">
<rect x="0.5" y="0.5" width="31" height="23" rx="3.5" fill="#00EB5E" stroke="#CCCCCC"/>
<path d="M26.4911 11.2822C27.0268 11.2822 27.2432 11.6551 27.2432 11.9116H25.7389C25.7389 11.6523 25.9576 11.2822 26.4911 11.2822ZM27.1222 13.0625C27.0221 13.257 26.7927 13.3887 26.4966 13.3887C25.9373 13.3887 25.7163 12.99 25.7103 12.6347H28.4883C28.496 12.5847 28.5165 12.4427 28.5165 12.332C28.5165 11.0774 27.6534 10.3694 26.4868 10.3694C25.2571 10.3694 24.397 11.0776 24.397 12.332C24.397 13.5863 25.2571 14.2948 26.494 14.2948C27.731 14.2948 28.2818 13.625 28.4344 13.0627H27.1222V13.0625Z" fill="#211D44"/>
<path d="M7.13619 13.1673C6.63742 13.1673 6.28317 12.8098 6.28317 12.335C6.28317 11.8602 6.61583 11.5027 7.13619 11.5027C7.65656 11.5027 7.98922 11.8845 7.98922 12.335C7.98922 12.7855 7.65228 13.1673 7.13619 13.1673ZM7.50947 10.4068C6.96217 10.4068 6.49268 10.6482 6.25046 10.9321L6.24961 10.4808H5V15.6633H6.2883V13.8078C6.59039 14.1332 7.01134 14.2568 7.43678 14.2568C8.7129 14.2568 9.30488 13.2921 9.30488 12.3318C9.30488 11.1465 8.54443 10.4068 7.50947 10.4068Z" fill="#211D44"/>
<path d="M11.0224 8.99997H9.729V14.1825H11.0224V8.99997Z" fill="#211D44"/>
<path d="M14.1436 10.481V12.406C14.1436 12.6978 14.1034 12.8395 13.9839 12.9811C13.8685 13.1177 13.6872 13.182 13.4864 13.182C13.2857 13.182 13.1042 13.1177 12.9885 12.9811C12.869 12.8395 12.829 12.6978 12.829 12.406V10.481H11.5403V12.5203C11.5403 13.0937 11.6282 13.4679 11.9033 13.786C12.1945 14.1223 12.639 14.2561 13.0742 14.2561C13.5841 14.2561 13.9373 14.0645 14.1814 13.7823L14.1823 14.1828H15.4319V10.481H14.1434H14.1436Z" fill="#211D44"/>
<path d="M19.6334 10.481H18.7528L17.7826 11.4687L16.812 10.481H15.9314V11.3616L16.9193 12.332L15.9316 13.3024V14.1828H16.8122L17.7826 13.1951L18.7528 14.1828H19.6334V13.3024L18.6457 12.332L19.6334 11.3616V10.481Z" fill="#211D44"/>
<path d="M22.0133 11.2822C22.5492 11.2822 22.7654 11.6551 22.7654 11.9116H21.2612C21.2612 11.6523 21.4799 11.2822 22.0133 11.2822ZM22.6444 13.0625C22.5443 13.257 22.3149 13.3887 22.0188 13.3887C21.4595 13.3887 21.2385 12.99 21.2325 12.6347H24.0105C24.0184 12.5847 24.0387 12.4427 24.0387 12.332C24.0387 11.0774 23.1756 10.3694 22.009 10.3694C20.7793 10.3694 19.9192 11.0776 19.9192 12.332C19.9192 13.5863 20.7791 14.2948 22.016 14.2948C23.253 14.2948 23.8038 13.625 23.9564 13.0627H22.6442L22.6444 13.0625Z" fill="#211D44"/>
</g>
<defs>
<clipPath id="clip0_12968_92">
<rect width="32" height="24" rx="4" fill="white"/>
</clipPath>
</defs>
</svg>

<svg xmlns="http://www.w3.org/2000/svg" width="32" height="24" fill="none" viewBox="0 0 32 24">
  <rect width="31" height="23" x=".5" y=".5" fill="#00eb5e" stroke="#ccc" rx="3.5"/>
  <path fill="#211d44" d="M26.491 11.282c.536 0 .752.373.752.63H25.74c0-.26.219-.63.752-.63m.631 1.78c-.1.195-.33.327-.625.327-.56 0-.78-.399-.787-.754h2.778a2 2 0 0 0 .029-.303c0-1.255-.864-1.963-2.03-1.963-1.23 0-2.09.709-2.09 1.963s.86 1.963 2.097 1.963 1.788-.67 1.94-1.232zM7.136 13.167c-.499 0-.853-.357-.853-.832s.333-.832.853-.832.853.381.853.832-.337.832-.853.832m.373-2.76c-.547 0-1.016.241-1.259.525v-.451H5v5.182h1.288v-1.855c.302.325.723.449 1.149.449 1.276 0 1.868-.965 1.868-1.925 0-1.186-.76-1.925-1.796-1.925M11.022 9H9.73v5.182h1.293zM14.144 10.481v1.925c0 .292-.04.433-.16.575-.116.137-.297.201-.498.201-.2 0-.382-.064-.498-.2-.119-.143-.159-.284-.159-.576v-1.925H11.54v2.04c0 .573.088.947.363 1.265.291.336.736.47 1.171.47.51 0 .863-.191 1.107-.474l.001.4h1.25v-3.701zM19.633 10.481h-.88l-.97.988-.971-.988h-.88v.88l.987.971-.987.97v.88h.88l.97-.987.97.988h.881v-.88l-.987-.971.987-.97zM22.013 11.282c.536 0 .752.373.752.63h-1.504c0-.26.219-.63.752-.63m.631 1.78c-.1.195-.33.327-.625.327-.56 0-.78-.399-.786-.754h2.778c.007-.05.028-.192.028-.303 0-1.255-.863-1.963-2.03-1.963-1.23 0-2.09.709-2.09 1.963s.86 1.963 2.097 1.963 1.788-.67 1.94-1.232z"/>
</svg>
